storage/app/icons/tabler/filled/sign-left.svg

<!--
version: "2.0"
unicode: "f6a1"
-->
<svg
  xmlns="http://www.w3.org/2000/svg"
  width="24"
  height="24"
  viewBox="0 0 24 24"
  fill="currentColor"
>
  <path d="M14 2a1 1 0 0 1 .993 .883l.007 .117v2h3a1 1 0 0 1 .993 .883l.007 .117v5a1 1 0 0 1 -.883 .993l-.117 .007h-3v8h1a1 1 0 0 1 .117 1.993l-.117 .007h-4a1 1 0 0 1 -.117 -1.993l.117 -.007h1v-8h-5a1 1 0 0 1 -.694 -.28l-.087 -.095l-2 -2.5a1 1 0 0 1 -.072 -1.147l.072 -.103l2 -2.5a1 1 0 0 1 .652 -.367l.129 -.008h5v-2a1 1 0 0 1 1 -1z" />
</svg>

<svg xmlns="http://www.w3.org/2000/svg" width="24" height="24" fill="currentColor" viewBox="0 0 24 24"><path d="M14 2a1 1 0 0 1 .993.883L15 3v2h3a1 1 0 0 1 .993.883L19 6v5a1 1 0 0 1-.883.993L18 12h-3v8h1a1 1 0 0 1 .117 1.993L16 22h-4a1 1 0 0 1-.117-1.993L12 20h1v-8H8a1 1 0 0 1-.694-.28l-.087-.095-2-2.5a1 1 0 0 1-.072-1.147l.072-.103 2-2.5a1 1 0 0 1 .652-.367L8 5h5V3a1 1 0 0 1 1-1"/></svg>
